X:1
T:Pues que ya nunca nos veis
T:Pues que ya nunca nos veis
T:Canción renacentista
T:Juan de la Encina / Arr: Fernando G. Morgollón
T:www.opustudio.wordpress.com
C:Popular / Arr: Fernando G. Morgollón
Z:www.opustudio.wordpress.com
L:1/8
Q:1/4=90
M:3/4
K:C
V:1 treble nm="Piano" snm="Pno."
V:1
"^\n""^Re" D4"^Re" D2 |"^Mi" E4"^Mi" E2 |"^Fa" F2"^Sol" G4 |"^La" A6 |"^La" A4"^Sol" G2 | %5
"^Fa" F2"^Sol" G4 |"^Fa" F2"^Mi" E4 |"^Re" D6 |"^Re" D4"^Re" D2 |"^Mi" E4"^Mi" E2 | %10
"^Fa" F2"^Sol" G4 |"^Fa" F4"^Mi" E2 |"^Re" D4"^Re" D2 |"^Mi" E4"^Mi" E2 |"^Fa" F2"^Sol" G4 | %15
"^Fa" F4"^Mi" E2 |"^Re" D4"^Re" D2 |"^Mi" E4"^Mi" E2 |"^Fa" F2"^Sol" G4 |"^La" A6 | %20
"^La" A4"^Sol" G2 |"^Fa" F2"^Sol" G4 |"^Fa" F2"^Mi" E4 |"^Re" D6 |] %24

